X:1
T:Title
%%score 1 { 2 | 3 }
L:1/8
Q:1/4=105
M:4/4
K:C
V:1 treble nm="Grand Piano, Soprano"
V:2 treble nm="Choir Pad, Maharashtra, 87.87 D"
V:3 bass 
V:1
 [CE]2 [EG]2- [EG][EG][FA][EG] | [CE][DF] [EG]6 | [CE]2 [DG]2- [DG][DG] [DF]2 | %3
w: By~Daniel~Brink~Towner,~1899 * * * * *|||
 [B,D]2 [CF]2 [CE]4 | [CE]2 [EG]2- [EG][EG][FA][EG] | [CE][DF] [EG]6 | C2 [CE]2- [CE][D^F] [DG]2 | %7
w: ||||
 [CE]2 [B,D]2 C4 | [EG]2 [EG]2- [EG][EG] [CE]2 | [Gc]2 [Ac]2- [Ac][FA] [EG]2 | %10
w: |||
 [EG]2 [FB]2- [FB][FB] [FA]2 | [FB]2 [Fd]2 [Ec]4 | [EG]2 [Ge]2- [Ge][Ge] [Gd]2 | %13
w: |||
 [Gc]2 [Fd]2- [Fd][Fd] [Fc]2 | [FA]2 [EG]2- [EG][EG] [FA]2 | [FB]2 [Fd]2 [Ec]4- | [Ec]4 z4 |] %17
w: ||||
V:2
 G,2 C2- CCCC | G,G, C6 | G,2 B,2- B,B, B,2 | G,2 A,2 G,4 | G,2[K:treble] C2- CCCC | G,G, C6 | %6
 E,2 A,2- A,C B,2 | G,2 F,2 E,4 | C2 C2- CC G,2 | G,2 F,2- F,/ z/ A, C2 | C2 D2- DD B,2 | %11
 G,2 G,2 G,4 | C2 C2- CC[K:bass] B,2 | C2 A,2- A,A, A,2 | C2 C2- CC B,2 | G,2 G,2 G,4- | G,4 z4 |] %17
V:3
 C,2 C,2- C,C,C,C, | C,C, C,6 | C,2 G,,2- G,,G,, G,,2 | G,,2 C,2 C,4 | C,2 C,2- C,C,C,C, | %5
 C,C, C,6 | C,2 A,,2- A,,A,, G,,2 | G,,2 G,,2 C,4 | C,2 C,2- C,C, C,2 | E,2 z2 z F, C,2 | %10
 C,2 G,2- G,G, G,2 | z2 C,2 C,4 | C,2 C,2- C,C, D,2 | E,2 F,2- F,F, F,2 | F,2 G,2- G,G, G,2 | %15
 z2 C,2 C,4- | C,4 z4 |] %17

